X:1
T:Totally Surrendered, SMD
T:Totally Surrendered, SMD
T:Scott Werdebaugh, 1981
T:©1981 S.Werdebaugh &amp; New Heart Music, Inc.  Copy or publish freely for Christian worship or devotions. All other rights reserved.
C:Scott Werdebaugh, 1981
Z:©1981 S.Werdebaugh & New Heart Music, Inc.  Copy or publish freely for Christian worship or
Z:devotions. All other rights reserved.
%%score ( 1 2 ) 3
L:1/8
Q:1/4=128
M:4/4
K:C
V:1 treble 
V:2 treble 
V:3 bass 
V:1
"^Prayerfully" [EG]2 | [CF]2 [CE]2 [B,E]2 [B,D]2 | C6 [EG]2 | [FA]2 [EG]2 [DG]2 [DF]2 | %4
 [CE]6 [CE]2 | [CF]2 [CE]2 [FA]2 [EG]2 | [DG]2 [B,D]2 [CE]2 [CE]2 | [D^F]2 [DG]2 [DA]2 [CA]2 | %8
 [B,G]6 [DG]2 | [EG]2 [CF]2 [B,E]2 [B,D]2 | C6 [EG]2 | [DG]2 [B,D]2 [CE]2 [DF]2 | [CE]6 [EG]2 | %13
 [Ec]2 [EB]2 [FA]2 [EG]2 | [DA]2 [D^F]2 [DG]2 !breath![CE]2 | [CF]2 [CE]2 [B,E]2 [B,D]2 | %16
 !fermata![G,C]6 |] %17
V:2
 x2 | x8 | C6 x2 | x8 | x8 | x8 | x8 | x8 | x8 | x8 | C6 x2 | x8 | x8 | x8 | x8 | x8 | x6 |] %17
V:3
 [C,G,]2 | [F,A,]2 [C,G,]2 [E,G,]2 [D,G,]2 | [E,G,]6 [C,G,]2 | [C,F,]2 [C,E,]2 [B,,G,]2 [G,,G,]2 | %4
 [C,G,]6 [C,G,]2 | [F,A,]2 [C,G,]2 [C,F,]2 [C,E,]2 | [B,,G,]2 [G,,G,]2 [C,G,]2 [C,G,]2 | %7
 [D,A,]2 [B,,G,]2 [D,^F,]2 [D,F,]2 | [D,G,]6 [B,,F,]2 | [C,E,]2 [F,A,]2 [G,,G,]2 [G,,F,]2 | %10
 [E,G,]6 [C,E,]2 | [B,,G,]2 [G,,F,]2 [C,G,]2 [B,,G,]2 | [C,G,]6 [C,E,]2 | %13
 [C,G,]2 [E,G,]2 [C,F,]2 [C,E,]2 | [D,^F,]2 [D,A,]2 [G,,B,]2 [C,G,]2 | %15
 [C,A,]2 [C,G,]2 [G,,G,]2 [G,,F,]2 | [C,E,]6 |] %17

